X:577
T:Deveron Reel, The
C:Joe Buchanan's Scottish Tome - Page 157.1
I:157 1
%C:Iain MacFadyen
Z:Carl Allison
R:Reel
L:1/8
M:4/4
K:D
A | "D"D2 D2 FEDF | "F#m"A2 A2 BAFA | "D"d2 fede | "E7"f2 e2 "A7"e2 A2 |
"D"D2 D2 FEDF | "F#m"A2 A2 BAFA | "D"d2 "A7"efga | "D"f2 d2 d3 :|
A | "D"f2 f2 defd | "A"e2 A2 A2 > A2 | "G"B2 B2 "A7"GABG | "D"A2 D2 D2 >D2 |
"Em" G2 G2 EFGE | "D"F2 A2 d2 A2 | "G"BAGF "A7"EFGB | "D"F2 D2 D2 > A2 |
"D"d2 e2 defd | "A"e2 A2 A2 > A2 | "G"B2 B2 "A7"GABG | "D"A2 D2 D2 > D2 |
"Em"G2 G2 EFGE | "D"F2 A2 d2 > a2 | "G"bagf efga | "D"f2 d2 d3 |]

